icons/cuda-dark.svg

<svg width="256" height="256" viewBox="0 0 256 256" fill="none" xmlns="http://www.w3.org/2000/svg">
<g clip-path="url(#clip0_1_17)">
<path d="M196 0H60C26.8629 0 0 26.8629 0 60V196C0 229.137 26.8629 256 60 256H196C229.137 256 256 229.137 256 196V60C256 26.8629 229.137 0 196 0Z" fill="#282828"/>
<path d="M48.8795 89.0437C48.8795 89.0437 66.1013 63.6341 100.488 61.0054V51.7869C62.4004 54.8457 29.4184 87.1037 29.4184 87.1037C29.4184 87.1037 48.0989 141.106 100.488 146.05V136.251C62.0422 131.415 48.8795 89.0437 48.8795 89.0437ZM100.488 116.764V125.738C71.4314 120.558 63.3662 90.3538 63.3662 90.3538C63.3662 90.3538 77.3172 74.899 100.488 72.3927V82.2396C100.47 82.2396 100.458 82.2336 100.443 82.2336C88.2822 80.7742 78.782 92.1347 78.782 92.1347C78.782 92.1347 84.1067 111.26 100.488 116.764ZM100.488 34.7833L100.488 51.7869C101.606 51.7012 102.724 51.6278 103.848 51.5895C147.149 50.1302 175.362 87.103 175.362 87.103C175.362 87.103 142.958 126.506 109.199 126.506C106.105 126.506 103.208 126.219 100.488 125.737L100.488 136.251C102.814 136.547 105.226 136.72 107.743 136.72C139.159 136.72 161.877 120.676 183.876 101.687C187.523 104.608 202.456 111.714 205.525 114.825C184.608 132.337 135.861 146.453 108.225 146.453C105.561 146.453 103.002 146.293 100.488 146.05L100.488 160.824H219.895V34.7833H100.488ZM100.488 72.3927V61.0054C101.594 60.9281 102.709 60.8685 103.848 60.8326C134.986 59.8545 155.414 87.5905 155.414 87.5905C155.414 87.5905 133.349 118.235 109.692 118.235C106.287 118.235 103.235 117.688 100.488 116.764V82.2396C112.61 83.7043 115.049 89.0583 122.336 101.207L138.545 87.54C138.545 87.54 126.713 72.0225 106.767 72.0225C104.599 72.0217 102.525 72.1745 100.488 72.3927Z" fill="#77B900"/>
<path d="M77.5659 213.568C76.4201 214.068 75.3784 214.537 74.4409 214.974C73.5243 215.412 72.3159 215.87 70.8159 216.349C69.5451 216.745 68.1597 217.078 66.6597 217.349C65.1805 217.641 63.5451 217.787 61.7534 217.787C58.3784 217.787 55.3055 217.318 52.5347 216.38C49.7847 215.422 47.3888 213.932 45.3472 211.912C43.3472 209.932 41.7847 207.422 40.6597 204.38C39.5347 201.318 38.9722 197.766 38.9722 193.724C38.9722 189.891 39.5138 186.464 40.5972 183.443C41.6805 180.422 43.243 177.87 45.2847 175.787C47.2638 173.766 49.6493 172.224 52.4409 171.162C55.2534 170.099 58.368 169.568 61.7847 169.568C64.2847 169.568 66.7743 169.87 69.2534 170.474C71.7534 171.078 74.5243 172.141 77.5659 173.662V181.005H77.0972C74.5347 178.86 71.993 177.297 69.4722 176.318C66.9513 175.339 64.2534 174.849 61.3784 174.849C59.0243 174.849 56.8993 175.235 55.0034 176.005C53.1284 176.755 51.4513 177.932 49.9722 179.537C48.5347 181.099 47.4097 183.078 46.5972 185.474C45.8055 187.849 45.4097 190.599 45.4097 193.724C45.4097 196.995 45.8472 199.807 46.7222 202.162C47.618 204.516 48.7638 206.432 50.1597 207.912C51.618 209.453 53.3159 210.599 55.2534 211.349C57.2118 212.078 59.2743 212.443 61.4409 212.443C64.4201 212.443 67.2118 211.932 69.8159 210.912C72.4201 209.891 74.8576 208.36 77.1284 206.318H77.5659V213.568ZM121.347 198.255C121.347 201.63 120.972 204.578 120.222 207.099C119.493 209.599 118.285 211.682 116.597 213.349C114.993 214.932 113.118 216.089 110.972 216.818C108.826 217.547 106.326 217.912 103.472 217.912C100.556 217.912 98.0138 217.526 95.8472 216.755C93.6805 215.985 91.8576 214.849 90.3784 213.349C88.6909 211.641 87.4722 209.578 86.7222 207.162C85.993 204.745 85.6284 201.776 85.6284 198.255V170.412H91.8159V198.568C91.8159 201.089 91.9826 203.078 92.3159 204.537C92.6701 205.995 93.2534 207.318 94.0659 208.505C94.9826 209.86 96.2222 210.88 97.7847 211.568C99.368 212.255 101.264 212.599 103.472 212.599C105.701 212.599 107.597 212.266 109.16 211.599C110.722 210.912 111.972 209.88 112.91 208.505C113.722 207.318 114.295 205.964 114.628 204.443C114.983 202.901 115.16 200.995 115.16 198.724V170.412H121.347V198.255ZM172.472 193.724C172.472 197.953 171.545 201.787 169.691 205.224C167.858 208.662 165.41 211.328 162.347 213.224C160.222 214.537 157.847 215.485 155.222 216.068C152.618 216.651 149.181 216.943 144.91 216.943H133.16V170.412H144.785C149.326 170.412 152.931 170.745 155.597 171.412C158.285 172.057 160.556 172.953 162.41 174.099C165.576 176.078 168.045 178.714 169.816 182.005C171.587 185.297 172.472 189.203 172.472 193.724ZM166.003 193.63C166.003 189.985 165.368 186.912 164.097 184.412C162.826 181.912 160.931 179.943 158.41 178.505C156.576 177.464 154.628 176.745 152.566 176.349C150.503 175.933 148.035 175.724 145.16 175.724H139.347V211.63H145.16C148.139 211.63 150.733 211.412 152.941 210.974C155.17 210.537 157.212 209.724 159.066 208.537C161.378 207.058 163.108 205.11 164.253 202.693C165.42 200.276 166.003 197.255 166.003 193.63ZM219.16 216.943H212.566L208.003 203.974H187.878L183.316 216.943H177.035L193.972 170.412H202.222L219.16 216.943ZM206.097 198.662L197.941 175.818L189.753 198.662H206.097Z" fill="#F4F2ED"/>
</g>
<defs>
<clipPath id="clip0_1_17">
<rect width="256" height="256" fill="white"/>
</clipPath>
</defs>
</svg>

<svg xmlns="http://www.w3.org/2000/svg" width="256" height="256" fill="none"><g clip-path="url(#clip0_1_17)"><path fill="#282828" d="M196 0H60C26.863 0 0 26.863 0 60v136c0 33.137 26.863 60 60 60h136c33.137 0 60-26.863 60-60V60c0-33.137-26.863-60-60-60"/><path fill="#77B900" d="M48.88 89.044s17.221-25.41 51.608-28.039v-9.218c-38.088 3.059-71.07 35.317-71.07 35.317s18.68 54.002 71.07 58.946v-9.799C62.042 131.415 48.88 89.044 48.88 89.044m51.608 27.72v8.974c-29.057-5.18-37.122-35.384-37.122-35.384s13.951-15.455 37.122-17.961v9.847c-.018 0-.03-.006-.045-.006-12.16-1.46-21.661 9.9-21.661 9.9s5.325 19.126 21.706 24.63m0-81.98v17.003a79 79 0 0 1 3.36-.197c43.301-1.46 71.514 35.513 71.514 35.513s-32.404 39.403-66.163 39.403c-3.094 0-5.991-.287-8.711-.769v10.514c2.326.296 4.738.469 7.255.469 31.416 0 54.134-16.044 76.133-35.033 3.647 2.921 18.58 10.027 21.649 13.138-20.917 17.512-69.664 31.628-97.3 31.628-2.664 0-5.223-.16-7.737-.403v14.774h119.407V34.784zm0 37.609V61.005a88 88 0 0 1 3.36-.172c31.138-.978 51.566 26.758 51.566 26.758s-22.065 30.644-45.722 30.644c-3.405 0-6.457-.547-9.204-1.471V82.24c12.122 1.464 14.561 6.818 21.848 18.967l16.209-13.667s-11.832-15.518-31.778-15.518c-2.168 0-4.242.152-6.279.37"/><path fill="#F4F2ED" d="M77.566 213.568q-1.72.75-3.125 1.406-1.375.657-3.625 1.375-1.906.594-4.156 1-2.22.438-4.907.438-5.062 0-9.218-1.407a18.95 18.95 0 0 1-7.188-4.468q-3-2.97-4.687-7.532-1.688-4.593-1.688-10.656 0-5.75 1.625-10.281t4.688-7.656q2.968-3.032 7.156-4.625 4.218-1.594 9.344-1.594 3.75 0 7.468.906 3.75.906 8.313 3.188v7.343h-.469q-3.843-3.218-7.625-4.687-3.78-1.469-8.094-1.469-3.531 0-6.375 1.156-2.813 1.125-5.03 3.532-2.157 2.343-3.376 5.937-1.187 3.563-1.187 8.25 0 4.906 1.312 8.438 1.344 3.53 3.438 5.75a13.8 13.8 0 0 0 5.093 3.437 17.6 17.6 0 0 0 6.188 1.094q4.469 0 8.375-1.531 3.907-1.531 7.312-4.594h.438zm43.781-15.313q0 5.063-1.125 8.844-1.093 3.75-3.625 6.25a14.6 14.6 0 0 1-5.625 3.469q-3.219 1.094-7.5 1.094-4.374 0-7.625-1.157-3.25-1.156-5.469-3.406-2.53-2.562-3.656-6.187-1.094-3.626-1.094-8.907v-27.843h6.188v28.156q0 3.781.5 5.969a12 12 0 0 0 1.75 3.968q1.375 2.032 3.719 3.063 2.375 1.03 5.687 1.031 3.343 0 5.688-1 2.343-1.031 3.75-3.094 1.218-1.78 1.718-4.062.532-2.313.532-5.719v-28.312h6.187zm51.125-4.531q0 6.344-2.781 11.5-2.75 5.156-7.344 8-3.187 1.97-7.125 2.844-3.906.875-10.312.875h-11.75v-46.531h11.625q6.812 0 10.812 1 4.032.968 6.813 2.687a20.8 20.8 0 0 1 7.406 7.906q2.656 4.938 2.656 11.719m-6.469-.094q0-5.468-1.906-9.218t-5.687-5.907a19 19 0 0 0-5.844-2.156q-3.094-.624-7.406-.625h-5.813v35.906h5.813q4.469 0 7.781-.656a17.5 17.5 0 0 0 6.125-2.437q3.469-2.219 5.187-5.844 1.75-3.625 1.75-9.063m53.157 23.313h-6.594l-4.563-12.969h-20.125l-4.562 12.969h-6.281l16.937-46.531h8.25zm-13.063-18.281-8.156-22.844-8.188 22.844z"/></g><defs><clipPath id="clip0_1_17"><path fill="#fff" d="M0 0h256v256H0z"/></clipPath></defs></svg>
